X:780
T: Ganley's
T: Port Mhig Sheanlaoich
S: B.Breathnach:"Ceol Rince na hEireann" IV/64
Z: B.Black
L: 1/8
M: 12/8
Q: 360
R: jig
K: D
a/g/|f2f def g2g efg|afd dcd eaa aba|
f2f def g2g efg|fed ABc d3 d2 :|
d/e/|faa abg f2d dcd|BcB efe ABA A2 d/e/|
faa abg f2d dcd|BdB ABc d3 d2 :|
